vms/client/nx_vms_client_core/external_resources/skin/20x20/Solid/group_organization.svg

<svg width="20" height="20" viewBox="0 0 20 20" fill="none" xmlns="http://www.w3.org/2000/svg">
<g id="20x20/Solid/group_organization">
<path id="Primary" fill-rule="evenodd" clip-rule="evenodd" d="M8 3C6.34315 3 5 4.34315 5 6V7C5 8.65685 6.34315 10 8 10C8.76835 10 9.46924 9.71115 10 9.23611C10.0415 9.19897 10.082 9.16069 10.1213 9.12132C10.6642 8.57843 11 7.82843 11 7V6C11 5.1115 10.6137 4.31321 10 3.76389C9.46924 3.28885 8.76835 3 8 3ZM2.00733 15.266C2.26078 13.6053 3.57406 12.3269 5.21081 12.0541L6 16H2.65044C2.25286 16 1.94835 15.6525 2.00733 15.266ZM10 16L10.7892 12.0541C12.4259 12.3269 13.7392 13.6053 13.9927 15.266C14.0516 15.6525 13.7471 16 13.3496 16H10ZM12 7V6C12 4.91901 11.5712 3.93818 10.8744 3.21831C11.222 3.07753 11.6019 3 12 3C13.6569 3 15 4.34315 15 6V7C15 8.65685 13.6569 10 12 10C11.6019 10 11.222 9.92247 10.8744 9.78169C11.5712 9.06183 12 8.08099 12 7ZM14.8708 16H17.3496C17.7471 16 18.0516 15.6525 17.9927 15.266C17.7062 13.3888 16.0654 12 14.134 12H13.1192C14.0935 12.7377 14.7856 13.8333 14.9812 15.1152C15.0294 15.4311 14.9849 15.7335 14.8708 16Z" fill="#A5B7C0"/>
<path id="Subtract" fill-rule="evenodd" clip-rule="evenodd" d="M8.93944 11.5H7.06056C6.82095 11.5 6.67803 11.767 6.81094 11.9664L7.5 13H8.5L9.18906 11.9664C9.32197 11.767 9.17905 11.5 8.93944 11.5ZM8.66667 13.5H7.33333L6.5 16H9.5L8.66667 13.5Z" fill="#E1E7EA"/>
</g>
</svg>

<svg xmlns="http://www.w3.org/2000/svg" width="20" height="20" fill="none" viewBox="0 0 20 20">
  <g class="20x20/Solid/group_organization">
    <path fill="#A5B7C0" fill-rule="evenodd" d="M8 3a3 3 0 0 0-3 3v1a3 3 0 0 0 6 0V6c0-.888-.386-1.687-1-2.236A2.989 2.989 0 0 0 8 3ZM2.007 15.266c.254-1.66 1.567-2.94 3.204-3.212L6 16H2.65a.643.643 0 0 1-.643-.734ZM10 16l.79-3.946c1.636.273 2.95 1.551 3.203 3.212a.643.643 0 0 1-.643.734H10Zm2-9V6a3.987 3.987 0 0 0-1.126-2.782A3 3 0 0 1 15 6v1a3 3 0 0 1-4.126 2.782A3.987 3.987 0 0 0 12 7Zm2.87 9h2.48a.643.643 0 0 0 .643-.734C17.706 13.389 16.065 12 14.134 12h-1.015a4.81 4.81 0 0 1 1.862 3.115 1.62 1.62 0 0 1-.11.885Z" class="Primary" clip-rule="evenodd"/>
    <path fill="#E1E7EA" fill-rule="evenodd" d="M8.94 11.5H7.06a.3.3 0 0 0-.25.466L7.5 13h1l.69-1.034a.3.3 0 0 0-.25-.466Zm-.273 2H7.333L6.5 16h3l-.833-2.5Z" id="Subtract" clip-rule="evenodd"/>
  </g>
</svg>
